X: 90
T: Wind That Shakes The Barley [The]
M: C|
L: 1/8
R: reel
K: D
A2 AB AFED|B2 BA BcdB|A2 AB AFED|gfed BcdB|
A2 AB AFED|B2 BA BcdB|FAAB AFED|gfed Bcde ||
f2 fd g2 ge|f2 fd Bcde|f2 fd g2 fg|afed Bcde|
f2 fd g2 ge|f2 fd Bcde|defg afbf|gfed Bcde ||
